X: 61
T:Old Grey Goose
M:6/8
L:1/8
R:Jig
K:G maj
|:E/2F/2|GBG FAF|GEE E2F|DFA dAF|FDD DEF|GFG AGA|BAB gfg|edB BAF|GEEE2
:| 
|:F|G2G dBG|GAB/2c/2 dBG|A2A ecA|ABc/2d/2 ecA|GAG dBG|egf gfg|edB BAF|
GEE E2:|
|:d|efe edB|defg2e|fdd add|fag fed|gfg fef|def gfg|edB BEF|GEEE2:|
|:c|BGG AFF|GEEE2c|BGG dAG|FDD D2c|BGG AGF|GEE gfg|edG GAF|GEEE2:|
|:f|gbg faf|geee2f|gbg fag|fdd def|gbg faf|egf gfg|edB BAF|GEEE2:|
|:f| gdc BcA|GEEE2f|gdB dAB|FDD DEF|G3AGA|BcB gfg|edB BAF|GEEE2:||
